Amon/img/header/phone.svg

<svg width="13" height="20" viewBox="0 0 13 20" fill="none" xmlns="http://www.w3.org/2000/svg">
    <path d="M11.4286 0H1.42857C1.04969 0 0.686328 0.15051 0.418419 0.418419C0.15051 0.686328 0 1.04969 0 1.42857V18.5714C0 18.9503 0.15051 19.3137 0.418419 19.5816C0.686328 19.8495 1.04969 20 1.42857 20H11.4286C11.8075 20 12.1708 19.8495 12.4387 19.5816C12.7066 19.3137 12.8571 18.9503 12.8571 18.5714V1.42857C12.8571 1.04969 12.7066 0.686328 12.4387 0.418419C12.1708 0.15051 11.8075 0 11.4286 0ZM1.42857 1.42857H11.4286V14.2857H1.42857V1.42857ZM1.42857 18.5714V15.7143H11.4286V18.5714H1.42857Z"
          fill="white"/>
</svg>

<svg width="13" height="20" fill="none" xmlns="http://www.w3.org/2000/svg"><path d="M11.429 0h-10A1.429 1.429 0 000 1.429V18.57A1.429 1.429 0 001.429 20h10a1.428 1.428 0 001.428-1.429V1.43A1.429 1.429 0 0011.43 0zm-10 1.429h10v12.857h-10V1.429zm0 17.142v-2.857h10v2.857h-10z" fill="#fff"/></svg>
